packages/dnb-eufemia/assets/icons/building_construction_medium.svg

<svg width="24" height="24" viewBox="0 0 24 24" fill="none" xmlns="http://www.w3.org/2000/svg">
<path d="M3.41184 11.9287V20.5H8.72746V14.9221C8.72746 14.1881 9.32244 13.5931 10.0564 13.5931H11.6608M0.754028 10.5998L3.41243 7.94165M18.5001 8.41229L11.6608 1.38909C11.1419 0.870305 10.3007 0.870305 9.78173 1.38909L6.73469 4.43612M18 23V15.1391M3.41243 7.94165V2.94375H6.73469V4.43612M3.41243 7.94165L6.73469 4.43612M20.25 15.1391V15.3891C20.25 15.6543 20.4848 15.8891 20.75 15.8891H23.25V10.6391H20.75C20.4848 10.6391 20.25 10.8738 20.25 11.1391V11.3891M20.25 15.1391V11.3891M20.25 15.1391H18M20.25 11.3891H17.25C16.4544 11.3891 15.6913 11.7051 15.1287 12.2677C14.5661 12.8304 14.25 13.5934 14.25 14.3891V16.0171C14.2519 16.3727 14.7243 16.5137 14.928 16.2391C15.2569 15.6628 15.8459 15.2506 16.5 15.1391H18" stroke="black" stroke-width="1.5" stroke-linecap="round" stroke-linejoin="round"/>
</svg>

<svg width="24" height="24" viewBox="0 0 24 24" fill="none" xmlns="http://www.w3.org/2000/svg"><path d="M3.412 11.929V20.5h5.315v-5.578a1.33 1.33 0 0 1 1.33-1.329h1.604M.754 10.6l2.658-2.658m15.088.47L11.66 1.39a1.329 1.329 0 0 0-1.878 0L6.735 4.436M18 23v-7.86M3.412 7.941V2.944h3.323v1.492M3.412 7.942l3.323-3.506M20.25 15.14v.25c0 .265.235.5.5.5h2.5v-5.25h-2.5c-.265 0-.5.235-.5.5v.25m0 3.75v-3.75m0 3.75H18m2.25-3.75h-3a3 3 0 0 0-3 3v1.628c.002.356.474.497.678.222a2.27 2.27 0 0 1 1.572-1.1H18" stroke="#000" stroke-width="1.5" stroke-linecap="round" stroke-linejoin="round"/></svg>
